images/color.svg

<?xml version="1.0" encoding="UTF-8" standalone="no"?>
<svg width="15px" height="15px" viewBox="0 0 15 15" version="1.1" xmlns="http://www.w3.org/2000/svg" xmlns:xlink="http://www.w3.org/1999/xlink">
    <!-- Generator: Sketch 40.3 (33839) - http://www.bohemiancoding.com/sketch -->
    <title>color</title>
    <desc>Created with Sketch.</desc>
    <defs></defs>
    <g id="Page-1" stroke="none" stroke-width="1" fill="none" fill-rule="evenodd">
        <g id="color" fill="#000000">
            <g id="Capa_1">
                <g id="Group">
                    <path d="M14.4063871,0.585258065 C13.6262903,-0.194870968 12.3614516,-0.195096774 11.5808387,0.585 L11.0415806,1.12425806 C10.7519032,0.834612903 10.2827097,0.834612903 9.99306452,1.12425806 C9.70335484,1.41367742 9.70335484,1.8833871 9.99306452,2.17280645 L10.1677742,2.3476129 L4.34235484,8.17345161 L4.34183871,8.17345161 L2.31974194,10.1957419 C2.15903226,10.3564516 2.06429032,10.5714194 2.05409677,10.7984516 L2.04925806,10.9063226 L2.04925806,10.9078065 L1.96767742,12.7369677 C1.96432258,12.8219032 1.99616129,12.9042258 2.05603226,12.9643226 C2.11251613,13.0210645 2.18974194,13.0526452 2.26990323,13.0526452 C2.27425806,13.0526452 2.27858065,13.0526452 2.28345161,13.0523871 L3.25325806,13.0094516 L3.25377419,13.0094516 L3.84467742,12.9831613 L4.113,12.9713548 C4.40987097,12.9580645 4.69183871,12.8339677 4.90232258,12.6237419 L12.6732258,4.85306452 L12.8185806,4.9983871 C12.9634194,5.14316129 13.1531613,5.21558065 13.3428387,5.21558065 C13.5325484,5.21558065 13.7223226,5.14316129 13.867129,4.9983871 C14.1568065,4.70893548 14.1568065,4.23922581 13.867129,3.94983871 L14.4063548,3.41054839 C15.1865161,2.63045161 15.1865161,1.3656129 14.4063871,0.585258065 L14.4063871,0.585258065 Z M8.79480645,7.33322581 L6.06577419,7.84806452 L10.5173226,3.39632258 L11.6248065,4.50329032 L8.79480645,7.33322581 L8.79480645,7.33322581 Z" id="Shape"></path>
                    <path d="M2.08064516,13.6732903 C0.931709677,13.6732903 0,13.9682903 0,14.3324839 C0,14.6964839 0.931709677,14.9914516 2.08064516,14.9914516 C3.22958065,14.9914516 4.16083871,14.6965161 4.16083871,14.3324839 C4.16083871,13.9682581 3.22958065,13.6732903 2.08064516,13.6732903 L2.08064516,13.6732903 Z" id="Shape"></path>
                </g>
            </g>
        </g>
    </g>
</svg>

<svg width="15" height="15" xmlns="http://www.w3.org/2000/svg"><g fill="#000" fill-rule="evenodd"><path d="M14.406.585a1.998 1.998 0 0 0-2.825 0l-.54.54a.741.741 0 1 0-1.048 1.048l.175.175-5.826 5.825-2.022 2.023a.91.91 0 0 0-.266.602l-.005.108v.002l-.081 1.829a.302.302 0 0 0 .302.316h.013l.97-.044.592-.026.268-.012c.297-.013.579-.137.79-.347l7.77-7.77.146.144a.74.74 0 0 0 1.048 0c.29-.29.29-.759 0-1.048l.54-.54c.78-.78.78-2.044 0-2.825zM8.795 7.333l-2.73.515 4.452-4.452 1.108 1.107-2.83 2.83zM2.08 13.673c-1.148 0-2.08.295-2.08.66 0 .363.932.658 2.08.658 1.15 0 2.08-.294 2.08-.659 0-.364-.93-.659-2.08-.659z"/></g></svg>
